48x48/apps/appimagekit-colon.svg

<svg xmlns="http://www.w3.org/2000/svg" width="48" height="48" version="1">
 <rect style="fill:#ffa023" width="40" height="40" x="4" y="4" rx="2" ry="2"/>
 <path fill="#fff" style="opacity:0.2" d="m6 4c-1.108 0-2 0.892-2 2v1c0-1.108 0.892-2 2-2h36c1.108 0 2 0.892 2 2v-1c0-1.108-0.892-2-2-2h-36z"/>
 <path opacity=".2" d="m6 45c-1.108 0-2-0.892-2-2v-1c0 1.108 0.892 2 2 2h36c1.108 0 2-0.892 2-2v1c0 1.108-0.892 2-2 2h-36z"/>
 <path style="fill:#17191e" d="M 8 8 L 8 40 L 40 40 L 40 8 L 8 8 z"/>
 <path style="opacity:0.2" d="m 28.492805,34.734419 c 0.839826,-0.215946 1.787646,-0.312408 2.484304,-0.852764 0.120043,-1.057673 -0.254656,-1.714863 -0.59698,-2.704521 -0.202953,-1.05173 -1.339024,-0.426436 -2.025701,-0.309922 -1.965947,0.511975 -4.279958,0.11725 -5.658895,-1.460345 -1.484743,-2.051689 -2.08277,-5.661694 -0.835827,-7.681772 0.712974,-1.461738 2.18183,-2.532222 3.826914,-2.642191 1.37976,-0.178791 2.928162,0.23553 4.291268,0.353396 0.695305,-0.358072 0.665634,-1.268266 0.872224,-1.989357 0.171637,-0.742133 0.203598,-1.568532 -0.792709,-1.89995 -2.111953,-0.630078 -4.564998,-0.639868 -6.741475,-0.408179 -2.766272,0.348499 -5.161167,2.296669 -6.284259,4.802972 -1.05294,2.159641 -1.153298,4.640737 -0.94015,6.991868 0.399336,3.338787 2.717465,6.42799 5.947816,7.527347 2.022103,0.750763 4.237686,0.583606 6.332871,0.296578 z"/>
 <path style="fill:#ffa023" d="m 28.492805,33.734419 c 0.839826,-0.215946 1.787646,-0.312408 2.484304,-0.852764 0.120043,-1.057673 -0.254656,-1.714863 -0.59698,-2.704521 -0.202953,-1.05173 -1.339024,-0.426436 -2.025701,-0.309922 -1.965947,0.511975 -4.279958,0.11725 -5.658895,-1.460345 -1.484743,-2.051689 -2.08277,-5.661694 -0.835827,-7.681772 0.712974,-1.461738 2.18183,-2.532222 3.826914,-2.642191 1.37976,-0.178791 2.928162,0.23553 4.291268,0.353396 0.695305,-0.358072 0.665634,-1.268266 0.872224,-1.989357 0.171637,-0.742133 0.203598,-1.568532 -0.792709,-1.89995 -2.111953,-0.630078 -4.564998,-0.639868 -6.741475,-0.408179 -2.766272,0.348499 -5.161167,2.296669 -6.284259,4.802972 -1.05294,2.159641 -1.153298,4.640737 -0.94015,6.991868 0.399336,3.338787 2.717465,6.42799 5.947816,7.527347 2.022103,0.750763 4.237686,0.583606 6.332871,0.296578 z"/>
 <rect style="opacity:0.2" width="32" height="1" x="8" y="8"/>
 <rect style="opacity:0.2;fill:#f4f4f7" width="32" height="1" x="8" y="40"/>
 <path style="fill:#f4f4f7;opacity:0.2" d="M 24.990234 14.015625 C 24.421195 14.037443 23.860526 14.08075 23.316406 14.138672 C 20.550134 14.487171 18.154342 16.435103 17.03125 18.941406 C 16.200851 20.644602 15.972599 22.546098 16.013672 24.427734 C 16.069426 22.879348 16.348159 21.342465 17.03125 19.941406 C 18.154342 17.435103 20.550134 15.487171 23.316406 15.138672 C 25.492883 14.906983 27.944688 14.916797 30.056641 15.546875 C 30.531039 15.704682 30.768988 15.977152 30.873047 16.296875 C 31.012221 15.596073 30.986619 14.856229 30.056641 14.546875 C 28.472676 14.074317 26.697352 13.95017 24.990234 14.015625 z M 21.21875 24.017578 C 21.096285 25.872965 21.678669 28.001403 22.695312 29.40625 C 24.074249 30.983845 26.387569 31.379162 28.353516 30.867188 C 29.040193 30.750674 30.177906 30.126004 30.380859 31.177734 C 30.605144 31.826141 30.829764 32.337136 30.933594 32.90625 C 30.947082 32.896248 30.963255 32.891182 30.976562 32.880859 C 31.096605 31.823186 30.723183 31.167392 30.380859 30.177734 C 30.177906 29.126004 29.040193 29.750674 28.353516 29.867188 C 26.387569 30.379162 24.074249 29.983845 22.695312 28.40625 C 21.858248 27.249554 21.320425 25.600735 21.21875 24.017578 z"/>
</svg>

<svg xmlns="http://www.w3.org/2000/svg" width="48" height="48" version="1"><rect style="fill:#ffa023" width="40" height="40" x="4" y="4" rx="2" ry="2"/><path fill="#fff" style="opacity:.2" d="M6 4c-1.108 0-2 .892-2 2v1c0-1.108.892-2 2-2h36c1.108 0 2 .892 2 2V6c0-1.108-.892-2-2-2H6z"/><path opacity=".2" d="M6 45c-1.108 0-2-.892-2-2v-1c0 1.108.892 2 2 2h36c1.108 0 2-.892 2-2v1c0 1.108-.892 2-2 2H6z"/><path style="fill:#17191e" d="M8 8v32h32V8H8z"/><path style="opacity:.2" d="M28.493 34.734c.84-.216 1.787-.312 2.484-.852.12-1.058-.255-1.715-.597-2.705-.203-1.052-1.339-.426-2.026-.31-1.966.512-4.28.117-5.658-1.46-1.485-2.052-2.083-5.662-.836-7.682.713-1.462 2.182-2.532 3.827-2.642 1.38-.179 2.928.235 4.29.353.696-.358.667-1.268.873-1.99.172-.741.204-1.568-.793-1.899-2.112-.63-4.565-.64-6.741-.408-2.766.348-5.161 2.296-6.284 4.803-1.053 2.16-1.154 4.64-.94 6.992.399 3.338 2.717 6.428 5.947 7.527 2.022.75 4.238.584 6.333.297z"/><path style="fill:#ffa023" d="M28.493 33.734c.84-.216 1.787-.312 2.484-.852.12-1.058-.255-1.715-.597-2.705-.203-1.052-1.339-.426-2.026-.31-1.966.512-4.28.117-5.658-1.46-1.485-2.052-2.083-5.662-.836-7.682.713-1.462 2.182-2.532 3.827-2.642 1.38-.179 2.928.235 4.29.353.696-.358.667-1.268.873-1.99.172-.741.204-1.568-.793-1.899-2.112-.63-4.565-.64-6.741-.408-2.766.348-5.161 2.296-6.284 4.803-1.053 2.16-1.154 4.64-.94 6.992.399 3.338 2.717 6.428 5.947 7.527 2.022.75 4.238.584 6.333.297z"/><path style="opacity:.2" d="M8 8h32v1H8z"/><path style="opacity:.2;fill:#f4f4f7" d="M8 40h32v1H8z"/><path style="fill:#f4f4f7;opacity:.2" d="M24.99 14.016c-.569.021-1.13.065-1.674.123-2.766.348-5.162 2.296-6.285 4.802-.83 1.704-1.058 3.605-1.017 5.487.055-1.549.334-3.086 1.017-4.487 1.123-2.506 3.52-4.454 6.285-4.802 2.177-.232 4.629-.222 6.74.408.475.158.713.43.817.75.14-.7.114-1.44-.816-1.75-1.584-.473-3.36-.597-5.067-.531zM21.22 24.018c-.123 1.855.46 3.983 1.476 5.388 1.38 1.578 3.693 1.973 5.659 1.461.686-.116 1.824-.741 2.027.31.224.65.449 1.16.553 1.73.013-.01.03-.016.043-.026.12-1.058-.254-1.714-.596-2.703-.203-1.052-1.34-.427-2.027-.31-1.966.511-4.28.116-5.659-1.462-.837-1.156-1.375-2.805-1.476-4.388z"/></svg>
